icons/svg/file-add.svg

<svg width="24" height="24" viewBox="0 0 24 24" fill="none" xmlns="http://www.w3.org/2000/svg">
<path fill-rule="evenodd" clip-rule="evenodd" d="M6.5 23C9.53757 23 12 20.5376 12 17.5C12 14.4624 9.53757 12 6.5 12C3.46243 12 1 14.4624 1 17.5C1 20.5376 3.46243 23 6.5 23ZM6.5 14.0066C6.77614 14.0066 7 14.2304 7 14.5066V17.0001H9.49342C9.76956 17.0001 9.99342 17.2239 9.99342 17.5001C9.99342 17.7762 9.76956 18.0001 9.49342 18.0001H7V20.4934C7 20.7696 6.77614 20.9934 6.5 20.9934C6.22386 20.9934 6 20.7696 6 20.4934V18.0001H3.50658C3.23044 18.0001 3.00658 17.7762 3.00658 17.5001C3.00658 17.2239 3.23044 17.0001 3.50658 17.0001H6V14.5066C6 14.2304 6.22386 14.0066 6.5 14.0066Z" fill="currentColor"/>
<path d="M4.29167 10.25V6.25C4.29167 4.317 5.85867 2.75 7.79167 2.75H10.24C10.7442 2.75 11.2371 2.85878 11.6875 3.06333M13.75 21.25H16.2083C18.1413 21.25 19.7083 19.683 19.7083 17.75V12.2195C19.7083 11.7148 19.5993 11.2213 19.3943 10.7706M11.6875 3.06333C12.0664 3.23545 12.4152 3.47538 12.7152 3.77538L18.6835 9.74492C18.9828 10.0443 19.2223 10.3924 19.3943 10.7706M11.6875 3.06333V4.10999V8.77056C11.6875 9.87513 12.5829 10.7706 13.6875 10.7706H18.35H19.3943" stroke="currentColor" stroke-width="1.5" stroke-linecap="round" stroke-linejoin="round"/>
</svg>

<svg xmlns="http://www.w3.org/2000/svg" width="24" height="24" fill="none" viewBox="0 0 24 24"><path fill="currentColor" fill-rule="evenodd" d="M6.5 23a5.5 5.5 0 1 0 0-11 5.5 5.5 0 0 0 0 11m0-8.993a.5.5 0 0 1 .5.5V17h2.493a.5.5 0 1 1 0 1H7v2.493a.5.5 0 1 1-1 0V18H3.507a.5.5 0 0 1 0-1H6v-2.493a.5.5 0 0 1 .5-.5" clip-rule="evenodd"/><path stroke="currentColor" stroke-linecap="round" stroke-linejoin="round" stroke-width="1.5" d="M4.292 10.25v-4a3.5 3.5 0 0 1 3.5-3.5h2.448a3.5 3.5 0 0 1 1.447.313M13.75 21.25h2.458a3.5 3.5 0 0 0 3.5-3.5v-5.53c0-.505-.109-.999-.314-1.45m-7.706-7.707a3.5 3.5 0 0 1 1.027.712l5.968 5.97c.3.3.54.647.711 1.026m-7.706-7.708V8.77a2 2 0 0 0 2 2h5.706"/></svg>
